X:1
T:Repent Ye
T:Repent Ye
T:James McGranahan
T:James McGranahan, 1887
T:Public Domain Courtesy of the Cyber Hymnal™
T:Public Domain Courtesy of the Cyber Hymnal™
C:James McGranahan
Z:Public Domain
Z:Courtesy of the Cyber Hymnal™
%%score ( 1 2 ) ( 3 4 )
L:1/8
Q:1/4=100
M:4/4
K:G
V:1 treble 
V:2 treble 
V:3 bass 
V:4 bass 
V:1
 [B,D][B,G] | [DB]2 [DB]2 [CA]2 [DB]>[CA] | [B,G]2 [B,G]2 [B,D]2 [B,G][DB] | %3
w: 1.~Have our|hearts grown cold since the|days of old? Have we|
w: 2.~Has the|God a- bove our su-|preme true love? Have we|
w: 3.~Do we|hon- or those who have|soothed our woes? Have we|
w: 4.~Are we|al- ways true in the|thing we do, In our|
w: 5.~Dare a|mor- tal say— for a|sin- gle day— “I have|
 [Gd]2 [Gd]2 [Dc]2 [Dc]2 | [DB]6 [DB]>[Ec] | [DB]2 [CA]2 [Ec]2 [CA]>[DB] | [CA]2 [B,G]2 [DB]2 D>D | %7
w: left our souls’ “first|love?” Nei- ther|cold nor hot, God com-|mends us not, Nor our|
w: bowed to Him al-|way? Do we|own His claim and re-|vere His name, And ob-|
w: ren- dered good for|ill? Are we|pure in heart, do- ing|all our part To ful-|
w: words, our works, our|ways? Are we|quite con- tent with the|bless- ings sent, Giv- ing|
w: kept Thy law, O|God! Un- de-|filed by sin, I am|pure with- in, And I|
 [CE]2 [EA]2 [DG]2 [DF]2 | [DG]6 ||"^Refrain" z3/2 G/ | G2 D z/ B/ B2 G z/ [=Fd]/ | %11
w: luke- warm ways ap-|prove.|||
w: serve His ho- ly|day?|||
w: fill the Sav- ior’s|will?|Re-|pent ye, re- pent ye, re-|
w: God a- lone the|praise?|||
w: need no cleans- ing|blood”?|||
 [Fd]4 [FB]2 [FB][FB] | [Ec]2 [Gc]2 [Gc]>[GB] [Bd]>[GB] | [FA]6 z3/2 A/ | %14
w: |||
w: |||
w: pent ye! ’Tis the|call of God to ev- ery|land! Re-|
w: |||
w: |||
 A2 E z/ c/ c2 A z/ [Ae]/ | [Ae]4 [Ac]2 DD | [Dd]2 [=Fd]>[Fd] [Fd][Fc][DB][DA] | [DG]6 |] %18
w: ||||
w: ||||
w: pent ye, re- pent ye, re-|pent ye! For the|king- dom of Hea- ven is at|hand.|
w: ||||
w: ||||
V:2
 x2 | x8 | x8 | x8 | x8 | x8 | x6 D>D | x8 | x6 || x3/2 G/ | G2 DB/ B2 G x3/2 | x8 | x8 | %13
 x15/2 A/ | A2 Ec/ c2 A x3/2 | x6 DD | x8 | x6 |] %18
V:3
 [G,,G,][G,,G,] | [G,,G,]2 [B,,G,]2 [D,F,]2 [D,F,]>[D,F,] | %2
 [G,,G,]2 [G,,D,]2 [G,,G,]2 [G,,D,][G,,G,] | [G,,B,]2 [B,,G,]2 ([D,F,][E,G,]) [F,A,]2 | %4
 G,6 [E,^G,]>[E,G,] | A,2 A,2 A,2 [D,F,]>[D,F,] | G,2 G,2 G,2 [B,,G,]>[B,,G,] | %7
 [C,G,]2 [C,C]2 [D,B,]2 [D,A,]2 | [G,,B,]6 || z3/2 G,/ | G,2 D, z/ B,/ B,2 G, z/ [G,B,]/ | %11
 [G,B,]4 [G,D]2 [G,D][G,D] | [C,C]2 [C,E]2 [G,,G,D]>[G,D] [G,D]>[G,D] | [D,D]6 z3/2 A,/ | %14
 A,2 E, z/ C/ C2 A, z/ [A,C]/ | [A,C]4 [A,E]2 D,[C,D,] | %16
 [B,,G,]2 [B,,G,]>[B,,G,] [C,G,][C,G,][D,F,][D,C] | [G,,G,B,]6 |] %18
V:4
 x2 | x8 | x8 | x8 | ^G,6 x2 | A,2 A,2 A,2 x2 | G,2 G,2 G,2 x2 | x8 | x6 || x3/2 G,/ | %10
 G,2 D,B,/ B,2 G, x3/2 | x8 | x8 | x15/2 A,/ | A,2 E,C/ C2 A, x3/2 | x6 D, x | x8 | x6 |] %18

